X: 40262
T: To Limerick We Go
R: slip jig
M: 9/8
K: Gmajor
|:BdB AGA BGE|BdB AGB A3|BdB AGA BGE|cBA BGE D3:|
|:DEG A2A A2B|AGE G2G G2A|DEG A2A A2B|B2A AGE D3:|

